img/icons/In.svg

<svg width="56" height="56" viewBox="0 0 56 56" fill="none" xmlns="http://www.w3.org/2000/svg">
<circle cx="28" cy="28" r="22" fill="#C4C4C4" fill-opacity="0.4"/>
<path d="M41 41H16V16H41V41Z" fill="#FF5F96"/>
<path d="M41 41H28.5V16H41V41Z" fill="#FF5F96"/>
<path d="M39.5352 39.5352H17.4648V17.4648H39.5352V39.5352Z" fill="#7F1D32"/>
<path d="M39.5352 39.5352H28.5V17.4648H39.5352V39.5352Z" fill="#7F1D32"/>
<path d="M24.0205 33.1875V24.8672H25.6376V33.1875H24.0205Z" fill="#FF5F96"/>
<path d="M29.6924 33.3047C27.8896 33.3047 26.7744 31.802 26.7744 30.1172C26.7744 28.207 28.0605 26.9414 29.5166 26.9414C30.7501 26.9414 31.3875 27.7734 31.5908 28.125V24.6328H33.1611V31.3828C33.1611 31.5469 33.3915 31.8439 33.5244 31.8516V33.1875C33.2508 33.2421 33.0281 33.2695 32.8563 33.2695C31.7225 33.2695 31.8251 32.1211 31.8251 32.1211C31.5985 32.5119 30.923 33.3047 29.6924 33.3047ZM30.1025 31.9688C31.0878 31.9688 31.536 31.086 31.5908 30.9375V29.4727C31.5282 29.3009 30.9657 28.2774 30.0088 28.2774C28.9394 28.2774 28.4033 29.3382 28.4033 30.1524C28.4033 31.0472 29.0615 31.9688 30.1025 31.9688Z" fill="#FF5F96"/>
<path d="M33.1611 31.3828V24.6328H31.5908V28.125C31.3876 27.7734 30.7501 26.9414 29.5166 26.9414C29.1623 26.9414 28.8182 27.0169 28.5 27.1579V29.5291C28.6981 28.8823 29.2013 28.2773 30.0088 28.2773C30.9658 28.2773 31.5282 29.3009 31.5908 29.4726V30.9375C31.5361 31.086 31.0878 31.9687 30.1026 31.9687C29.2952 31.9687 28.7184 31.4143 28.5 30.7481V33.0539C28.8523 33.2143 29.2517 33.3046 29.6925 33.3046C30.9231 33.3046 31.5986 32.5118 31.8253 32.121C31.8253 32.121 31.7227 33.2695 32.8565 33.2695C33.0283 33.2695 33.2509 33.242 33.5245 33.1874V31.8515C33.3915 31.8438 33.1611 31.5469 33.1611 31.3828Z" fill="#FF5F96"/>
<path d="M14.8548 52.7225C18.6212 54.7252 22.7953 55.8407 27.0586 55.9842C31.3219 56.1276 35.5615 55.295 39.454 53.5501C43.3464 51.8051 46.7887 49.1939 49.5181 45.9157C52.2475 42.6375 54.1918 38.779 55.2026 34.6348C56.2133 30.4906 56.2639 26.1702 55.3504 22.0035C54.4368 17.8368 52.5833 13.9339 49.9314 10.5927C47.2795 7.25157 43.8992 4.56049 40.0487 2.72493C36.1981 0.889361 31.9791 -0.0421635 27.7136 0.00146451L27.7575 4.28614C31.3702 4.24919 34.9436 5.03816 38.2048 6.59283C41.4661 8.14749 44.3291 10.4268 46.5752 13.2566C48.8213 16.0865 50.3911 19.3921 51.1649 22.9212C51.9386 26.4502 51.8958 30.1094 51.0397 33.6195C50.1836 37.1295 48.5368 40.3975 46.2252 43.174C43.9135 45.9505 40.9979 48.1622 37.7012 49.6401C34.4044 51.118 30.8135 51.8232 27.2027 51.7017C23.5918 51.5802 20.0564 50.6353 16.8664 48.9392L14.8548 52.7225Z" fill="#3B5999"/>
</svg>

<svg width="56" height="56" fill="none" xmlns="http://www.w3.org/2000/svg"><circle cx="28" cy="28" r="22" fill="#C4C4C4" fill-opacity=".4"/><path d="M41 41H16V16h25v25z" fill="#FF5F96"/><path d="M41 41H28.5V16H41v25z" fill="#FF5F96"/><path d="M39.535 39.535h-22.07v-22.07h22.07v22.07z" fill="#7F1D32"/><path d="M39.535 39.535H28.5v-22.07h11.035v22.07z" fill="#7F1D32"/><path d="M24.02 33.188v-8.32h1.618v8.32H24.02zm5.672.117c-1.802 0-2.918-1.503-2.918-3.188 0-1.91 1.287-3.176 2.743-3.176a2.38 2.38 0 012.074 1.184v-3.492h1.57v6.75c0 .164.23.46.363.469v1.335a3.57 3.57 0 01-.668.083c-1.134 0-1.03-1.149-1.03-1.149a2.454 2.454 0 01-2.134 1.184zm.41-1.336c.986 0 1.434-.883 1.489-1.032v-1.464c-.063-.172-.625-1.196-1.582-1.196-1.07 0-1.606 1.061-1.606 1.875 0 .895.659 1.817 1.7 1.817z" fill="#FF5F96"/><path d="M33.161 31.383v-6.75h-1.57v3.492a2.379 2.379 0 00-2.074-1.184c-.355 0-.699.076-1.017.217v2.371c.198-.647.701-1.252 1.509-1.252.957 0 1.52 1.024 1.582 1.196v1.465c-.055.148-.503 1.03-1.488 1.03-.808 0-1.385-.554-1.603-1.22v2.306c.352.16.752.25 1.192.25a2.453 2.453 0 002.133-1.183s-.102 1.148 1.031 1.148c.172 0 .395-.027.669-.082v-1.335c-.133-.008-.364-.305-.364-.47z" fill="#FF5F96"/><path d="M14.855 52.722A28 28 0 1027.714.002l.044 4.284A23.714 23.714 0 1116.866 48.94l-2.011 3.783z" fill="#3B5999"/></svg>
